src/assets/images/pages/company/invoice-download.svg

<svg width="32" height="32" viewBox="0 0 32 32" fill="none" xmlns="http://www.w3.org/2000/svg">
<rect opacity="0.08" width="32" height="32" rx="16" fill="#6C50F0"/>
<path d="M14.6668 22H19.3335C19.6871 22 20.0263 21.8595 20.2763 21.6095C20.5264 21.3594 20.6668 21.0203 20.6668 20.6667V14.276C20.6668 14.0992 20.5965 13.9297 20.4715 13.8047L16.8622 10.1953C16.7372 10.0703 16.5676 10 16.3908 10H12.6668C12.3132 10 11.9741 10.1405 11.724 10.3905C11.474 10.6406 11.3335 10.9797 11.3335 11.3333V18.6667M11.3335 22L14.5862 18.7473M14.5862 18.7473C14.7713 18.9356 14.9919 19.0853 15.2352 19.1878C15.4784 19.2904 15.7396 19.3437 16.0036 19.3448C16.2676 19.3459 16.5293 19.2948 16.7734 19.1943C17.0175 19.0937 17.2393 18.9459 17.4261 18.7592C17.6128 18.5726 17.7607 18.3508 17.8612 18.1067C17.9618 17.8626 18.013 17.601 18.012 17.3369C18.011 17.0729 17.9576 16.8117 17.8552 16.5684C17.7527 16.3251 17.603 16.1045 17.4148 15.9193C17.0388 15.5493 16.5317 15.3428 16.0041 15.3449C15.4765 15.347 14.9711 15.5574 14.598 15.9305C14.2248 16.3035 14.0142 16.8089 14.012 17.3365C14.0098 17.8641 14.2162 18.3712 14.5862 18.7473Z" stroke="#6C50F0" stroke-width="1.33" stroke-linecap="round" stroke-linejoin="round"/>
</svg>

<svg width="32" height="32" fill="none" xmlns="http://www.w3.org/2000/svg"><rect opacity=".08" width="32" height="32" rx="16" fill="#6C50F0"/><path d="M14.667 22h4.667a1.333 1.333 0 001.333-1.333v-6.391a.667.667 0 00-.196-.471l-3.609-3.61a.667.667 0 00-.471-.195h-3.724a1.334 1.334 0 00-1.333 1.333v7.334m0 3.333l3.252-3.253m0 0a1.998 1.998 0 002.84.012 1.998 1.998 0 00-.011-2.84 2 2 0 00-2.829 2.828z" stroke="#6C50F0" stroke-width="1.33" stroke-linecap="round" stroke-linejoin="round"/></svg>
